images_sukapura_svg/cmd/sc_setdocumentproperties.svg

<svg viewBox="0 0 16 16" xmlns="http://www.w3.org/2000/svg" xmlns:xlink="http://www.w3.org/1999/xlink"><linearGradient id="a" gradientUnits="userSpaceOnUse" x1="8" x2="8" y1="16" y2="1"><stop offset="0" stop-color="#b0b0b3"/><stop offset="1" stop-color="#e2f0f4"/></linearGradient><linearGradient id="b" gradientUnits="userSpaceOnUse" x1="5.5" x2="5.5" y1="4" y2="11.5"><stop offset="0" stop-color="#9fa3aa"/><stop offset="1" stop-color="#a3a8a9"/></linearGradient><linearGradient id="c" gradientUnits="userSpaceOnUse" x1="8" x2="8" y1="4.5" y2="11.5"><stop offset="0" stop-color="#808080"/><stop offset="1" stop-color="#a6a6a6"/></linearGradient><linearGradient id="d" gradientUnits="userSpaceOnUse" x1="10" x2="11.500001" y1="4" y2="2.499999"><stop offset="0" stop-color="#fff"/><stop offset=".77967989" stop-color="#f1f1f1"/><stop offset="1" stop-color="#d5d5d5"/></linearGradient><radialGradient id="e" cx="10.994179" cy="4.42844" gradientTransform="matrix(1.4 .00000004 -.00000001 1.2 -4.39185 -2.314129)" gradientUnits="userSpaceOnUse" r="5"><stop offset="0" stop-color="#d7d7d7"/><stop offset=".49894297" stop-color="#f7f7f7"/><stop offset="1" stop-color="#fff"/></radialGradient><path d="m3 1v14h10v-11.2949219l-2.695312-2.7050781z" fill="url(#e)"/><path d="m3 0c-.554 0-1 .446-1 1v14c0 .554.446 1 1 1h10c.554 0 1-.446 1-1v-10.5-.8632812l-3.636719-3.6367188h-.863281zm0 1h6v3.5c0 .277.223.5.5.5h3.5v10h-10zm7 0 3 3h-3z" fill="#98989d"/><path d="m10 1 3 3h-3z" fill="url(#d)"/><g stroke-linejoin="round" transform="matrix(.56400254 0 0 .56400254 6.998956 6.998956)"><path d="m6.9375.5c-.2484169 0-.4375.18908218-.4375.4375v1.25c-.5539029.1422005-1.051164.3718783-1.53125.65625l-.90625-.90625c-.1756569-.1756579-.449342-.1756579-.625 0l-1.5 1.5c-.175657.1756579-.175657.4493421 0 .625l.90625.90625c-.2843711.4800856-.514049.9773468-.65625 1.53125h-1.25c-.24841699 0-.4375.1890821-.4375.4375v2.125c.00000001.2484178.189083.4375.4375.4375h1.25c.1422009.553903.371879 1.051164.65625 1.53125l-.90625.90625c-.175657.175658-.175657.449342 0 .625l1.5 1.5c.1756579.175658.449342.175658.625 0l.90625-.90625c.4800861.284372.977347.51405 1.53125.65625v1.25c.0000001.248418.189083.4375.4375.4375h2.125c.2484176 0 .4375-.189082.4375-.4375v-1.25c.553903-.1422 1.051164-.371878 1.53125-.65625l.90625.90625c.175658.175658.449342.175658.625 0l1.5-1.5c.175658-.175658.175658-.449342 0-.625l-.90625-.90625c.284372-.480086.51405-.977347.65625-1.53125h1.25c.248418 0 .4375-.1890826.4375-.4375v-2.125c0-.2484178-.189083-.4375-.4375-.4375h-1.25c-.1422-.5539032-.371878-1.0511644-.65625-1.53125l.90625-.90625c.175658-.1756579.175658-.449342 0-.625l-1.5-1.5c-.175658-.1756579-.449342-.1756579-.625 0l-.90625.90625c-.480086-.2843717-.977347-.5140495-1.53125-.65625v-1.25c-.0000004-.24841782-.189082-.4375-.4375-.4375zm1.0625 5.5c1.104 0 2 .896 2 2s-.896 2-2 2-2-.896-2-2 .896-2 2-2z" display="block" fill="url(#a)" stroke="#98989d"/><path d="m8 4.5a3.5 3.5 0 0 0 -3.5 3.5 3.5 3.5 0 0 0 3.5 3.5 3.5 3.5 0 0 0 3.5-3.5 3.5 3.5 0 0 0 -3.5-3.5zm0 1.5c1.104 0 2 .896 2 2s-.896 2-2 2-2-.896-2-2 .896-2 2-2z" fill="url(#b)" stroke="url(#c)" stroke-linecap="round"/></g></svg>

<?xml version="1.0" encoding="UTF-8" standalone="no"?>
<svg
   xmlns:dc="http://purl.org/dc/elements/1.1/"
   xmlns:cc="http://creativecommons.org/ns#"
   xmlns:rdf="http://www.w3.org/1999/02/22-rdf-syntax-ns#"
   xmlns:svg="http://www.w3.org/2000/svg"
   xmlns="http://www.w3.org/2000/svg"
   xmlns:sodipodi="http://sodipodi.sourceforge.net/DTD/sodipodi-0.dtd"
   xmlns:inkscape="http://www.inkscape.org/namespaces/inkscape"
   viewBox="0 0 16 16"
   version="1.1"
   id="svg22"
   sodipodi:docname="sc_setdocumentproperties.svg"
   inkscape:version="0.92.3 (2405546, 2018-03-11)">
  <metadata
     id="metadata28">
    <rdf:RDF>
      <cc:Work
         rdf:about="">
        <dc:format>image/svg+xml</dc:format>
        <dc:type
           rdf:resource="http://purl.org/dc/dcmitype/StillImage" />
        <dc:title></dc:title>
      </cc:Work>
    </rdf:RDF>
  </metadata>
  <defs
     id="defs26">
    <linearGradient
       id="a-2"
       gradientUnits="userSpaceOnUse"
       x1="8"
       x2="8"
       y1="16"
       y2="1">
      <stop
         offset="0"
         stop-color="#b0b0b3"
         id="stop2-0" />
      <stop
         offset="1"
         stop-color="#e2f0f4"
         id="stop4-6" />
    </linearGradient>
    <linearGradient
       id="c"
       gradientUnits="userSpaceOnUse"
       x1="5.5"
       x2="5.5"
       y1="4"
       y2="11.5">
      <stop
         offset="0"
         stop-color="#9fa3aa"
         id="stop12" />
      <stop
         offset="1"
         stop-color="#a3a8a9"
         id="stop14" />
    </linearGradient>
    <linearGradient
       id="b-1"
       gradientUnits="userSpaceOnUse"
       x1="8"
       x2="8"
       y1="4.5"
       y2="11.5">
      <stop
         offset="0"
         stop-color="#808080"
         id="stop7" />
      <stop
         offset="1"
         stop-color="#a6a6a6"
         id="stop9-5" />
    </linearGradient>
  </defs>
  <sodipodi:namedview
     pagecolor="#ffffff"
     bordercolor="#666666"
     borderopacity="1"
     objecttolerance="10"
     gridtolerance="10"
     guidetolerance="10"
     inkscape:pageopacity="0"
     inkscape:pageshadow="2"
     inkscape:window-width="1366"
     inkscape:window-height="685"
     id="namedview24"
     showgrid="true"
     inkscape:zoom="14.75"
     inkscape:cx="6.2539825"
     inkscape:cy="6.528813"
     inkscape:window-x="0"
     inkscape:window-y="0"
     inkscape:window-maximized="1"
     inkscape:current-layer="svg22"
     inkscape:snap-global="false">
    <inkscape:grid
       type="xygrid"
       id="grid851" />
  </sodipodi:namedview>
  <linearGradient
     id="a"
     gradientUnits="userSpaceOnUse"
     x1="10"
     x2="11.5000006"
     y1="4"
     y2="2.4999994">
    <stop
       offset="0"
       stop-color="#fff"
       id="stop2" />
    <stop
       offset=".77967989"
       stop-color="#f1f1f1"
       id="stop4" />
    <stop
       offset="1"
       stop-color="#d5d5d5"
       id="stop6" />
  </linearGradient>
  <radialGradient
     id="b"
     cx="10.994179"
     cy="4.42844"
     gradientTransform="matrix(1.4 .00000004 -.00000001 1.2 -4.39185 -2.314129)"
     gradientUnits="userSpaceOnUse"
     r="5">
    <stop
       offset="0"
       stop-color="#d7d7d7"
       id="stop9" />
    <stop
       offset=".49894297"
       stop-color="#f7f7f7"
       id="stop11" />
    <stop
       offset="1"
       stop-color="#fff"
       id="stop13" />
  </radialGradient>
  <g
     id="g838">
    <path
       id="path16"
       fill="url(#b)"
       d="m3 1v14h10v-11.2949219l-2.695312-2.7050781z" />
    <path
       id="path18"
       fill="#98989d"
       d="m3 0c-.554 0-1 .446-1 1v14c0 .554.446 1 1 1h10c.554 0 1-.446 1-1v-10.5-.8632812l-3.636719-3.6367188h-.863281zm0 1h6v3.5c0 .277.223.5.5.5h3.5v10h-10zm7 0 3 3h-3z" />
    <path
       id="path20"
       fill="url(#a)"
       d="m10 1 3 3h-3z" />
  </g>
  <g
     style="stroke-linejoin:round"
     id="g21"
     transform="matrix(0.56400254,0,0,0.56400254,6.9989564,6.9989564)">
    <path
       style="display:block;fill:url(#a-2);stroke:#98989d"
       inkscape:connector-curvature="0"
       d="M 6.9375,0.5 C 6.6890831,0.5 6.5,0.68908218 6.5,0.9375 v 1.25 C 5.9460971,2.3297005 5.448836,2.5593783 4.96875,2.84375 L 4.0625,1.9375 c -0.1756569,-0.1756579 -0.449342,-0.1756579 -0.625,0 l -1.5,1.5 c -0.175657,0.1756579 -0.175657,0.4493421 0,0.625 L 2.84375,4.96875 C 2.5593789,5.4488356 2.329701,5.9460968 2.1875,6.5 h -1.25 C 0.68908301,6.5 0.5,6.6890821 0.5,6.9375 v 2.125 c 1e-8,0.2484178 0.189083,0.4375 0.4375,0.4375 h 1.25 c 0.1422009,0.553903 0.371879,1.051164 0.65625,1.53125 L 1.9375,11.9375 c -0.175657,0.175658 -0.175657,0.449342 0,0.625 l 1.5,1.5 c 0.1756579,0.175658 0.449342,0.175658 0.625,0 L 4.96875,13.15625 C 5.4488361,13.440622 5.946097,13.6703 6.5,13.8125 v 1.25 c 1e-7,0.248418 0.189083,0.4375 0.4375,0.4375 h 2.125 C 9.3109176,15.5 9.5,15.310918 9.5,15.0625 v -1.25 c 0.553903,-0.1422 1.051164,-0.371878 1.53125,-0.65625 l 0.90625,0.90625 c 0.175658,0.175658 0.449342,0.175658 0.625,0 l 1.5,-1.5 c 0.175658,-0.175658 0.175658,-0.449342 0,-0.625 L 13.15625,11.03125 C 13.440622,10.551164 13.6703,10.053903 13.8125,9.5 h 1.25 C 15.310918,9.5 15.5,9.3109174 15.5,9.0625 V 6.9375 C 15.5,6.6890822 15.310917,6.5 15.0625,6.5 h -1.25 C 13.6703,5.9460968 13.440622,5.4488356 13.15625,4.96875 L 14.0625,4.0625 c 0.175658,-0.1756579 0.175658,-0.449342 0,-0.625 l -1.5,-1.5 c -0.175658,-0.1756579 -0.449342,-0.1756579 -0.625,0 L 11.03125,2.84375 C 10.551164,2.5593783 10.053903,2.3297005 9.5,2.1875 v -1.25 C 9.4999996,0.68908218 9.310918,0.5 9.0625,0.5 Z M 8,6 c 1.104,0 2,0.896 2,2 0,1.104 -0.896,2 -2,2 C 6.896,10 6,9.104 6,8 6,6.896 6.896,6 8,6 Z"
       display="block"
       id="path17" />
    <path
       style="fill:url(#c);stroke:url(#b-1);stroke-linecap:round"
       inkscape:connector-curvature="0"
       d="M 8,4.5 A 3.5,3.5 0 0 0 4.5,8 3.5,3.5 0 0 0 8,11.5 3.5,3.5 0 0 0 11.5,8 3.5,3.5 0 0 0 8,4.5 Z M 8,6 c 1.104,0 2,0.896 2,2 0,1.104 -0.896,2 -2,2 C 6.896,10 6,9.104 6,8 6,6.896 6.896,6 8,6 Z"
       id="path19" />
  </g>
</svg>
